icons/amdroid.svg

<?xml version="1.0" encoding="UTF-8" standalone="no"?>
<svg xmlns="http://www.w3.org/2000/svg" viewBox="0 0 48 48" version="1.1">
  <path
     style="fill:#ffffff"
     d="M 24,2 C 11.849736,2 2,11.849736 2,24 2,36.150264 11.849736,46 24,46 36.150264,46 46,36.150264 46,24 46,11.849736 36.150264,2 24,2 Z m -2.460938,5.796875 h 4.921876 c 0.664799,0 1.199218,0.5344186 1.199218,1.1992188 v 0.78125 c 2.298165,0.5893542 4.419682,1.7258332 6.183594,3.3125002 l 0.861328,-0.861328 -2.302734,-2.2636722 c 0.764376,-0.7750192 1.809927,-1.2076124 2.898437,-1.1992188 0.780325,0.00756 1.541647,0.2416525 2.191407,0.6738281 l 0.246093,-0.2460937 c 0.135601,-0.1403497 0.320566,-0.2223226 0.515625,-0.2285157 0.684235,-0.021547 1.037351,0.8095378 0.546875,1.2871093 l -0.234375,0.234375 c 1.110783,1.587007 0.934378,3.739972 -0.419922,5.125 l -2.373046,-2.332031 -0.869141,0.871094 c 2.444166,2.69893 3.800507,6.208437 3.806641,9.849609 -0.0012,3.94949 -1.590428,7.732617 -4.410157,10.498047 l 1.960938,3.384765 c 1.000368,1.681506 -1.549533,3.157871 -2.509766,1.453126 L 32.011719,36.333984 C 29.627093,37.884166 26.844205,38.709806 24,38.710938 c -2.845067,-0.0013 -5.628701,-0.827674 -8.013672,-2.378907 l -1.738281,3.003907 c -0.960233,1.704745 -3.510134,0.22838 -2.509766,-1.453126 l 1.958985,-3.386718 C 10.878738,31.730813 9.2902347,27.948528 9.2890625,24 9.2982506,20.360072 10.65662,16.852807 13.101562,14.15625 L 12.224609,13.279297 9.8535156,15.611328 C 8.4992161,14.2263 8.3228108,12.073335 9.4335938,10.486328 L 9.1992187,10.251953 C 8.71757,9.7823109 9.0499385,8.9650318 9.7226563,8.9648437 c 0.2032247,0 0.3977517,0.082463 0.5390627,0.2285157 L 10.505859,9.4375 c 0.65053,-0.431847 1.412567,-0.6652761 2.19336,-0.671875 1.08851,-0.00839 2.134061,0.4241996 2.898437,1.1992188 l -2.302734,2.2636722 0.86914,0.86914 c 1.759455,-1.593319 3.87835,-2.7372 6.175782,-3.3339841 V 8.9960938 c 0,-0.6648008 0.534419,-1.1992188 1.199218,-1.1992188 z M 24,12.404297 C 17.59579,12.404104 12.404104,17.59579 12.404297,24 12.404104,30.40421 17.59579,35.595896 24,35.595703 30.40421,35.595896 35.595896,30.40421 35.595703,24 35.595896,17.59579 30.40421,12.404104 24,12.404297 Z m 0,1.580078 c 0.276142,0 0.5,0.223858 0.5,0.5 0,0.276142 -0.223858,0.5 -0.5,0.5 -0.276142,0 -0.5,-0.223858 -0.5,-0.5 0,-0.276142 0.223858,-0.5 0.5,-0.5 z m -0.0059,1.644531 c 0.197586,-0.0031 0.35856,0.157883 0.355468,0.355469 v 6.179687 C 25.231282,22.331734 25.869235,23.102525 25.869141,24 25.869416,25.032412 25.032412,25.869416 24,25.869141 c -0.322399,-2e-5 -0.639308,-0.08345 -0.919922,-0.242188 l -5.070312,5.070313 c -0.471255,0.490773 -1.197805,-0.235777 -0.707032,-0.707032 L 22.375,24.917969 C 22.215909,24.638116 22.131811,24.321911 22.130859,24 c 8.44e-4,-0.896739 0.638581,-1.66645 1.519532,-1.833984 v -6.181641 c -0.003,-0.193001 0.150755,-0.352027 0.34375,-0.355469 z M 24,33 c 0.276142,0 0.5,0.223858 0.5,0.5 0,0.276142 -0.223858,0.5 -0.5,0.5 -0.276142,0 -0.5,-0.223858 -0.5,-0.5 0,-0.276142 0.223858,-0.5 0.5,-0.5 z"
     id="circle2" />
</svg>

<?xml version="1.0" encoding="UTF-8" standalone="no"?>
<svg xmlns="http://www.w3.org/2000/svg" viewBox="0 0 48 48" version="1.1">
  <path
     style="fill:#ffffff"
     d="M 24 2 A 22 22 0 0 0 2 24 A 22 22 0 0 0 24 46 A 22 22 0 0 0 46 24 A 22 22 0 0 0 24 2 z M 21.539062 7.796875 L 26.460938 7.796875 C 27.125737 7.796875 27.660156 8.3312936 27.660156 8.9960938 L 27.660156 9.7773438 A 14.710293 14.710293 0 0 1 33.84375 13.089844 L 34.705078 12.228516 L 32.402344 9.9648438 A 4.0273438 4.0273438 0 0 1 35.300781 8.765625 A 4.0273438 4.0273438 0 0 1 37.492188 9.4394531 L 38.324219 8.6074219 A 0.750075 0.750075 0 0 1 38.839844 8.3789062 A 0.750075 0.750075 0 0 1 39.386719 9.6660156 L 38.566406 10.486328 A 4.0273438 4.0273438 0 0 1 38.146484 15.611328 L 35.773438 13.279297 L 34.904297 14.150391 A 14.710293 14.710293 0 0 1 38.710938 24 A 14.710293 14.710293 0 0 1 34.300781 34.498047 L 36.261719 37.882812 A 1.450145 1.450145 0 1 1 33.751953 39.335938 L 32.011719 36.333984 A 14.710293 14.710293 0 0 1 24 38.710938 A 14.710293 14.710293 0 0 1 15.986328 36.332031 L 14.248047 39.335938 A 1.450145 1.450145 0 1 1 11.738281 37.882812 L 13.697266 34.496094 A 14.710293 14.710293 0 0 1 9.2890625 24 A 14.710293 14.710293 0 0 1 13.101562 14.15625 L 12.224609 13.279297 L 9.8535156 15.611328 A 4.0273438 4.0273438 0 0 1 9.4335938 10.486328 L 8.6132812 9.6660156 A 0.750075 0.750075 0 0 1 9.1367188 8.3789062 A 0.750075 0.750075 0 0 1 9.6757812 8.6074219 L 10.505859 9.4375 A 4.0273438 4.0273438 0 0 1 12.699219 8.765625 A 4.0273438 4.0273438 0 0 1 15.597656 9.9648438 L 13.294922 12.228516 L 14.164062 13.097656 A 14.710293 14.710293 0 0 1 20.339844 9.7636719 L 20.339844 8.9960938 C 20.339844 8.331293 20.874263 7.796875 21.539062 7.796875 z M 24 12.404297 A 11.595353 11.595353 0 0 0 12.404297 24 A 11.595353 11.595353 0 0 0 24 35.595703 A 11.595353 11.595353 0 0 0 35.595703 24 A 11.595353 11.595353 0 0 0 24 12.404297 z M 24 13.984375 A 0.5 0.5 0 0 1 24.5 14.484375 A 0.5 0.5 0 0 1 24 14.984375 A 0.5 0.5 0 0 1 23.5 14.484375 A 0.5 0.5 0 0 1 24 13.984375 z M 23.994141 15.628906 A 0.35003499 0.35003499 0 0 1 24.349609 15.984375 L 24.349609 22.164062 A 1.868644 1.868644 0 0 1 25.869141 24 A 1.868644 1.868644 0 0 1 24 25.869141 A 1.868644 1.868644 0 0 1 23.080078 25.626953 L 18.009766 30.697266 A 0.50005 0.50005 0 1 1 17.302734 29.990234 L 22.375 24.917969 A 1.868644 1.868644 0 0 1 22.130859 24 A 1.868644 1.868644 0 0 1 23.650391 22.166016 L 23.650391 15.984375 A 0.35003499 0.35003499 0 0 1 23.994141 15.628906 z M 24 33 A 0.5 0.5 0 0 1 24.5 33.5 A 0.5 0.5 0 0 1 24 34 A 0.5 0.5 0 0 1 23.5 33.5 A 0.5 0.5 0 0 1 24 33 z "
     id="circle2" />
</svg>
